assets/svg/1F305.svg

<svg xmlns="http://www.w3.org/2000/svg" viewBox="0 0 64 64" enable-background="new 0 0 64 64"><path fill="#fbb041" d="m63.716 56.818c0 3.781-3.06 6.846-6.842 6.846h-49.773c-3.778 0-6.838-3.063-6.838-6.846v-49.769c0-3.776 3.061-6.841 6.838-6.841h49.775c3.78 0 6.84 3.064 6.84 6.841v49.769h0"/><g opacity=".52"><path fill="#fbed21" d="m49.944 44.541c.288-.955.526-1.934.658-2.951h-25.2c.883.174 17.193 2.781 24.54 2.951"/></g><g opacity=".52"><path fill="#fbed21" d="m30.23 58.5c.336.02.667.051 1.01.051 4.542 0 8.7-1.57 12.01-4.172-3.978.789-12.545 3.922-13.02 4.121"/></g><path fill="#ff0" d="m30.377 17.05c-12.09 0-21.879 9.799-21.879 21.879 0 2.416.407 4.734 1.128 6.906h41.501c.721-2.172 1.132-4.49 1.132-6.906.0001-12.08-9.797-21.879-21.882-21.879"/><g fill="#f7ed4c"><path d="m6.347 32.21l-6.06-1.689v4.281l5.383.727c.15-1.121.381-2.238.68-3.319"/><path d="m55.31 38.934c0 1.156-.081 2.311-.232 3.434l7.212.984c.688-.824 1.192-1.803 1.444-2.881v-1.648h-8.424v.111"/><path d="m13.333 20.729l-13.04-13.932c-.003.084-.013.167-.013.252v7.47l10.719 8.713c.716-.883 1.498-1.727 2.33-2.503"/><path d="m9.03 26.02l-8.748-5.321v5.218l7.188 3.115c.445-1.033.971-2.045 1.56-3.01"/><path d="m5.674 42.39c-.155-1.121-.234-2.275-.234-3.42l-5.155.002v1.463c.209.928.591 1.791 1.133 2.539l4.256-.584"/><path d="m53.25 28.966l10.491-4.581v-5.793l-12.05 7.373c.587.96 1.113 1.972 1.561 3"/><path d="m50.36.208l-8.556 16.546c1 .518 1.974 1.113 2.904 1.765l12.886-18.276c-.228-.023-.458-.035-.692-.035h-6.542"/><path d="m49.707 23.18l14.03-11.46v-4.668c0-1.128-.278-2.19-.762-3.128l-15.607 16.761c.832.776 1.616 1.614 2.338 2.495"/><path d="m55.08 35.443l8.661-1.195v-4.736l-9.351 2.634c.304 1.073.534 2.184.69 3.297"/><path d="m38.7 15.413l5.377-15.204h-5.696l-2.931 14.297c1.096.227 2.191.531 3.25.907"/><path d="m25.23 14.521l-2.98-14.313h-5.696l5.436 15.227c1.055-.378 2.143-.685 3.24-.914"/><path d="m30.374 13.999c.585-.021 1.137.018 1.699.055l.913-13.846h-5.336l.953 13.851c.584-.04 1.177-.06 1.771-.06"/><path d="m18.896 16.785l-8.634-16.577h-3.14c-1.267 0-2.449.351-3.466.951l12.333 17.402c.928-.657 1.902-1.254 2.907-1.776"/></g><path fill="#368eba" d="m28.468 44.44c-11.266 3.852-22.19 4.246-28.21 4.08v12.08c0 3.779 3.061 3.063 6.838 3.063h49.775c3.78 0 6.84.428 6.84-3.352v-15.869h-35.25"/><path fill="#85bde8" d="m.262 41.59h63.45v20.01h-63.45z"/><path fill="#368eba" d="m41.864 53.3c-13.246.891-29.29 1.775-41.602-4.4v12.773h63.45v-13.998c-6.662 3.51-14.626 5.137-21.852 5.625"/><g opacity=".52"><path fill="#fbed21" d="m30.21 44.16c-4.488-.742-8.945-1.746-13.418-2.566h-8.296c.22 1.664.645 3.262 1.228 4.781 8.774 1.107 17.472 2.963 26.328 3.227 4.092.123 8.101-.078 12.08-.439.603-1.07 1.112-2.201 1.529-3.375-6.515-.05-12.848-.528-19.45-1.628"/></g><g opacity=".52"><path fill="#fbed21" d="m36.421 50.584c-8.836-.262-17.474-1.881-26.19-3.02 1.077 2.369 2.568 4.516 4.394 6.33 10.829-1.107 21.615-2.865 32.476-3.035.161-.234.294-.492.45-.734-3.669.366-7.36.575-11.127.464"/></g><g opacity=".52"><path fill="#fbed21" d="m31.544 58.2c3.568-1.5 7.19-2.92 11.04-3.504.429-.064.857-.115 1.282-.176.936-.85 1.81-1.756 2.583-2.758-10.413.055-20.765 1.639-31.14 2.787 3.238 2.939 7.374 4.891 11.956 5.393 1.423-.558 2.845-1.132 4.285-1.742"/></g><g opacity=".52"><path fill="#fbed21" d="m2.702 58.5c.337.02.669.051 1.01.051 4.543 0 8.703-1.57 12.01-4.172-3.971.789-12.539 3.922-13.02 4.121"/></g><g opacity=".52"><path fill="#fbed21" d="m34.974 42.662c.313.127.616.266.938.375 4.296 1.479 8.741 1.346 12.713-.039-4.01-.547-13.13-.369-13.651-.336"/></g><g opacity=".52"><path fill="#fbed21" d="m27.865 61.55c-.336.02-.671.049-1.01.049-4.544 0-8.703-1.57-12.01-4.172 3.968.789 12.539 3.922 13.02 4.123"/></g><g opacity=".52"><path fill="#fbed21" d="m61.7 48.51c-.241.016-.479.037-.72.037-3.226 0-6.18-1.113-8.53-2.961 2.827.564 8.908 2.783 9.25 2.924"/></g><g opacity=".52"><path fill="#fbed21" d="m48.959 52.38c.118.004.241.018.36.018 1.615 0 3.088-.555 4.261-1.48-1.409.282-4.447 1.39-4.621 1.462"/></g><g opacity=".52"><path fill="#fbed21" d="m2.246 46c.124.004.238.02.364.02 1.607 0 3.085-.559 4.261-1.48-1.411.278-4.451 1.388-4.625 1.46"/></g></svg>

<?xml version="1.0" encoding="utf-8"?>
<!-- Generator: Adobe Illustrator 16.0.0, SVG Export Plug-In . SVG Version: 6.00 Build 0)  -->
<!DOCTYPE svg PUBLIC "-//W3C//DTD SVG 1.1//EN" "http://www.w3.org/Graphics/SVG/1.1/DTD/svg11.dtd">
<svg version="1.1"
	 id="Layer_1" xmlns:rdf="http://www.w3.org/1999/02/22-rdf-syntax-ns#" xmlns:inkscape="http://www.inkscape.org/namespaces/inkscape" xmlns:svg="http://www.w3.org/2000/svg" xmlns:cc="http://creativecommons.org/ns#" xmlns:sodipodi="http://sodipodi.sourceforge.net/DTD/sodipodi-0.dtd" xmlns:dc="http://purl.org/dc/elements/1.1/" inkscape:export-filename="D:\TESTINGEMOJI\SVGTEST\1F305.png" inkscape:export-ydpi="90" sodipodi:docname="1F305.svg" inkscape:export-xdpi="90" inkscape:version="0.48.5 r10040"
	 xmlns="http://www.w3.org/2000/svg" xmlns:xlink="http://www.w3.org/1999/xlink" x="0px" y="0px" width="64px" height="64px"
	 viewBox="0 0 64 64" enable-background="new 0 0 64 64" xml:space="preserve">
<g>
	<g id="g3625_1_">
		<path id="path3627_1_" fill="#FBB041" d="M63.716,56.818c0,3.781-3.06,6.846-6.842,6.846H7.101c-3.778,0-6.838-3.063-6.838-6.846
			V7.049c0-3.776,3.061-6.841,6.838-6.841h49.775c3.78,0,6.84,3.064,6.84,6.841V56.818L63.716,56.818z"/>
	</g>
	<g id="g3651_1_" opacity="0.52">
		<path id="path3653_1_" fill="#FBED21" d="M49.944,44.541c0.288-0.955,0.526-1.934,0.658-2.951H25.404
			C26.287,41.764,42.597,44.371,49.944,44.541z"/>
	</g>
	<g id="g3667_1_" opacity="0.52">
		<path id="path3669_1_" fill="#FBED21" d="M30.228,58.504c0.336,0.02,0.667,0.051,1.01,0.051c4.542,0,8.7-1.57,12.014-4.172
			C39.274,55.172,30.707,58.305,30.228,58.504z"/>
	</g>
	<g>
		<path fill="#FFFF00" d="M30.377,17.054c-12.088,0-21.879,9.799-21.879,21.879c0,2.416,0.407,4.734,1.128,6.906h41.501
			c0.721-2.172,1.132-4.49,1.132-6.906C52.26,26.852,42.462,17.054,30.377,17.054z"/>
		<path fill="#F7ED4C" d="M6.347,32.208l-6.063-1.689v4.281l5.383,0.727C5.817,34.406,6.048,33.289,6.347,32.208z"/>
		<path fill="#F7ED4C" d="M55.314,38.934c0,1.156-0.081,2.311-0.232,3.434l7.212,0.984c0.688-0.824,1.192-1.803,1.444-2.881v-1.648
			h-8.424V38.934z"/>
		<path fill="#F7ED4C" d="M13.333,20.729L0.297,6.797C0.294,6.881,0.284,6.964,0.284,7.049v7.47l10.719,8.713
			C11.719,22.349,12.501,21.505,13.333,20.729z"/>
		<path fill="#F7ED4C" d="M9.032,26.024l-8.748-5.321v5.218l7.188,3.115C7.917,28.003,8.443,26.991,9.032,26.024z"/>
		<path fill="#F7ED4C" d="M5.674,42.393c-0.155-1.121-0.234-2.275-0.234-3.42l-5.155,0.002v1.463
			c0.209,0.928,0.591,1.791,1.133,2.539L5.674,42.393z"/>
		<path fill="#F7ED4C" d="M53.247,28.966l10.491-4.581v-5.793l-12.052,7.373C52.273,26.925,52.799,27.937,53.247,28.966z"/>
		<path fill="#F7ED4C" d="M50.356,0.208L41.8,16.754c1.002,0.518,1.974,1.113,2.904,1.765L57.59,0.243
			c-0.228-0.023-0.458-0.035-0.692-0.035H50.356z"/>
		<path fill="#F7ED4C" d="M49.707,23.177l14.031-11.46V7.049c0-1.128-0.278-2.19-0.762-3.128L47.369,20.682
			C48.201,21.458,48.985,22.296,49.707,23.177z"/>
		<path fill="#F7ED4C" d="M55.077,35.443l8.661-1.195v-4.736l-9.351,2.634C54.691,33.219,54.921,34.33,55.077,35.443z"/>
		<path fill="#F7ED4C" d="M38.7,15.413l5.377-15.204h-5.696L35.45,14.506C36.546,14.733,37.641,15.037,38.7,15.413z"/>
		<path fill="#F7ED4C" d="M25.231,14.521L22.251,0.208h-5.696l5.436,15.227C23.046,15.057,24.134,14.75,25.231,14.521z"/>
		<path fill="#F7ED4C" d="M30.374,13.999c0.585-0.021,1.137,0.018,1.699,0.055l0.913-13.846H27.65l0.953,13.851
			C29.187,14.019,29.78,13.999,30.374,13.999z"/>
		<path fill="#F7ED4C" d="M18.896,16.785L10.262,0.208h-3.14c-1.267,0-2.449,0.351-3.466,0.951l12.333,17.402
			C16.917,17.904,17.891,17.307,18.896,16.785z"/>
	</g>
	<path fill="#368EBA" d="M28.468,44.443c-11.266,3.852-22.188,4.246-28.206,4.08v12.078c0,3.779,3.061,3.063,6.838,3.063h49.775
		c3.78,0,6.84,0.428,6.84-3.352V44.443H28.468z"/>
	<g id="g3643_1_">
		<rect id="rect3645_1_" x="0.262" y="41.59" fill="#85BDE8" width="63.454" height="20.01"/>
	</g>
	<g id="g3647_1_">
		<path id="path3649_1_" fill="#368EBA" d="M41.864,53.295c-13.246,0.891-29.287,1.775-41.602-4.4v12.773h63.454V47.67
			C57.054,51.18,49.09,52.807,41.864,53.295z"/>
	</g>
	<g id="g3655_1_" opacity="0.52">
		<path id="path3657_1_" fill="#FBED21" d="M30.21,44.156c-4.488-0.742-8.945-1.746-13.418-2.566H8.496
			c0.22,1.664,0.645,3.262,1.228,4.781c8.774,1.107,17.472,2.963,26.328,3.227c4.092,0.123,8.101-0.078,12.079-0.439
			c0.603-1.07,1.112-2.201,1.529-3.375C43.145,45.734,36.812,45.256,30.21,44.156z"/>
	</g>
	<g id="g3659_1_" opacity="0.52">
		<path id="path3661_1_" fill="#FBED21" d="M36.421,50.584c-8.836-0.262-17.474-1.881-26.193-3.025
			c1.077,2.369,2.568,4.516,4.394,6.33c10.829-1.107,21.615-2.865,32.476-3.035c0.161-0.234,0.294-0.492,0.45-0.734
			C43.879,50.486,40.188,50.695,36.421,50.584z"/>
	</g>
	<g id="g3663_1_" opacity="0.52">
		<path id="path3665_1_" fill="#FBED21" d="M31.544,58.195c3.568-1.5,7.19-2.92,11.035-3.504c0.429-0.064,0.857-0.115,1.282-0.176
			c0.936-0.85,1.81-1.756,2.583-2.758c-10.413,0.055-20.765,1.639-31.141,2.787c3.238,2.939,7.374,4.891,11.956,5.393
			C28.682,59.379,30.104,58.805,31.544,58.195z"/>
	</g>
	<g id="g3671_1_" opacity="0.52">
		<path id="path3673_1_" fill="#FBED21" d="M2.702,58.504c0.337,0.02,0.669,0.051,1.01,0.051c4.543,0,8.703-1.57,12.01-4.172
			C11.751,55.172,3.183,58.305,2.702,58.504z"/>
	</g>
	<g id="g3671_2_" opacity="0.52">
		<path id="path3673_2_" fill="#FBED21" d="M34.974,42.662c0.313,0.127,0.616,0.266,0.938,0.375
			c4.296,1.479,8.741,1.346,12.713-0.039C44.614,42.451,35.492,42.629,34.974,42.662z"/>
	</g>
	<g id="g3675_1_" opacity="0.52">
		<path id="path3677_1_" fill="#FBED21" d="M27.865,61.551c-0.336,0.02-0.671,0.049-1.011,0.049c-4.544,0-8.703-1.57-12.009-4.172
			C18.813,58.217,27.384,61.35,27.865,61.551z"/>
	</g>
	<g id="g3679_1_" opacity="0.52">
		<path id="path3681_1_" fill="#FBED21" d="M61.7,48.508c-0.241,0.016-0.479,0.037-0.72,0.037c-3.226,0-6.18-1.113-8.53-2.961
			C55.277,46.148,61.358,48.367,61.7,48.508z"/>
	</g>
	<g id="g3683_1_" opacity="0.52">
		<path id="path3685_1_" fill="#FBED21" d="M48.959,52.385c0.118,0.004,0.241,0.018,0.36,0.018c1.615,0,3.088-0.555,4.261-1.48
			C52.171,51.205,49.133,52.313,48.959,52.385z"/>
	</g>
	<g id="g3687_1_" opacity="0.52">
		<path id="path3689_1_" fill="#FBED21" d="M2.246,46.002c0.124,0.004,0.238,0.02,0.364,0.02c1.607,0,3.085-0.559,4.261-1.48
			C5.46,44.82,2.42,45.93,2.246,46.002z"/>
	</g>
</g>
<sodipodi:namedview  id="namedview3691" inkscape:cy="32" gridtolerance="10" bordercolor="#666666" inkscape:cx="32" objecttolerance="10" guidetolerance="10" inkscape:zoom="3.6875" showgrid="false" pagecolor="#ffffff" borderopacity="1" inkscape:current-layer="Layer_1" inkscape:window-maximized="0" inkscape:window-y="346" inkscape:window-x="633" inkscape:window-height="480" inkscape:window-width="640" inkscape:pageshadow="2" inkscape:pageopacity="0">
	</sodipodi:namedview>
</svg>
